logos/purescript.svg

<?xml version="1.0" encoding="UTF-8"?>
<svg width="512px" height="86px" viewBox="0 0 512 86" version="1.1" xmlns="http://www.w3.org/2000/svg" xmlns:xlink="http://www.w3.org/1999/xlink" preserveAspectRatio="xMidYMid">
    <g>
        <path d="M27.9975977,25.3402126 L35.1519688,32.4962592 L12.206041,55.438836 L35.1519688,78.3881148 L27.9975977,85.5374594 L1.4744844,59.0143461 C0.522802253,58.0626639 1.56009932e-05,56.7943129 1.56009932e-05,55.4405115 C-0.00308138435,54.1800912 0.455007863,52.9853503 1.28985309,52.0592628 L1.4744844,51.8650015 L27.9975977,25.3402126 Z M87.7072749,63.0506177 L98.5360104,73.1622405 L50.9837375,73.1622405 L40.1550021,63.0506177 L87.7072749,63.0506177 Z M110.703468,-3.55271368e-15 L137.216529,26.5264643 C138.171562,27.479822 138.695992,28.744822 138.699343,30.0969479 C138.699343,31.3604958 138.239587,32.5525261 137.401809,33.4850495 L137.216529,33.6808354 L110.703468,60.1989223 L103.552448,53.0462267 L126.486647,30.1002989 L103.552448,7.15269557 L110.703468,-3.55271368e-15 Z M333.304938,25.3636696 C335.323912,25.3636696 337.329481,25.695418 339.326673,26.3605902 C341.315488,27.0240869 343.034548,27.959014 344.480501,29.1653717 L341.633832,33.1899149 C340.693879,32.34714 339.430554,31.6518089 337.830455,31.1106234 C336.233706,30.5644115 334.660415,30.292981 333.10723,30.292981 C331.550693,30.292981 330.278991,30.6079744 329.285421,31.2429877 C328.290176,31.8763254 327.790878,32.8330341 327.790878,34.1164646 C327.790878,35.3982196 328.290176,36.3783851 329.285421,37.0569613 C330.282342,37.7355375 332.395143,38.4660541 335.640581,39.2501866 C338.884342,40.034319 341.325541,41.1351204 342.970879,42.5542661 C344.61119,43.9734119 345.435534,46.0610808 345.435534,48.8189484 C345.435534,51.5784915 344.395051,53.8169552 342.314084,55.5376903 C340.236468,57.2550745 337.503733,58.1146043 334.125932,58.1146043 C329.17819,58.1146043 324.790064,56.4089486 320.961554,53.0026638 L324.309196,48.9781206 C327.506044,51.7527432 330.828554,53.138379 334.259971,53.138379 C335.980706,53.138379 337.346236,52.7697697 338.356561,52.0308757 C339.36521,51.2936571 339.87121,50.315167 339.87121,49.0903789 C339.87121,47.8689418 339.393693,46.9189351 338.443687,46.2403589 C337.49368,45.5634583 335.858395,44.9452 333.534481,44.388935 C331.210567,43.8293191 329.446269,43.3149416 328.243262,42.850829 C327.035229,42.3833655 325.964587,41.7701336 325.02966,41.0178356 C323.159805,39.5986899 322.224878,37.4272461 322.224878,34.5018288 C322.224878,31.578087 323.288819,29.3211929 325.411673,27.739524 C327.541229,26.1578551 330.170084,25.3636696 333.304938,25.3636696 Z M372.419409,25.3536166 C377.321913,25.3536166 381.415151,27.1631531 384.700801,30.782226 L381.30792,34.4917758 C379.801648,33.0441466 378.3758,32.0338221 377.033727,31.4608022 C375.691655,30.8877823 374.115012,30.5995969 372.305476,30.5995969 C369.108628,30.5995969 366.424482,31.6333784 364.254714,33.7009414 C362.081595,35.7651533 360.995873,38.4057362 360.995873,41.6176634 C360.995873,44.8295907 362.078244,47.515412 364.234608,49.6717763 C366.385946,51.8348425 368.942754,52.9105115 371.896654,52.9105115 C373.738025,52.9105115 375.319694,52.6022201 376.648363,51.9839618 C377.973681,51.3657035 379.360992,50.3771604 380.805271,49.0183325 L384.246741,52.5469287 C380.899098,56.2548029 376.832668,58.1079023 372.055827,58.1079023 C367.278985,58.1079023 363.309734,56.5697963 360.158124,53.4935843 C357.004839,50.4173723 355.431548,46.5285444 355.431548,41.822074 C355.431548,37.1172792 357.038349,33.1982923 360.248601,30.060087 C363.462204,26.9235571 367.516906,25.3536166 372.419409,25.3536166 Z M214.921041,26.1310471 L214.921041,43.6383125 C214.922716,46.5335709 215.646531,48.8273259 217.09416,50.5162266 C218.540114,52.2051273 220.500445,53.0495777 222.975154,53.0495777 C225.444836,53.0495777 227.408518,52.2051273 228.856147,50.5162266 C230.302101,48.8256504 231.02424,46.5335709 231.02424,43.639988 L231.02424,26.1310471 L236.365723,26.1310471 L236.365723,43.8645046 C236.365723,48.4185047 235.112452,51.9253194 232.60926,54.3799221 C230.106068,56.8378758 226.895816,58.0676904 222.975154,58.0676904 C219.054491,58.0676904 215.840888,56.8378758 213.337696,54.3799221 C210.834504,51.9219684 209.582908,48.4151537 209.582908,43.8645046 L209.582908,26.1310471 L214.921041,26.1310471 Z M184.477265,26.1293716 C189.274212,26.1293716 192.770974,27.0525703 194.972577,28.8889147 C197.174179,30.7302856 198.276656,33.5652261 198.276656,37.3954117 C198.276656,41.2255972 197.152398,44.0303787 194.905557,45.8080808 C192.658716,47.5891338 189.212219,48.4754716 184.567742,48.4754716 L178.958179,48.4754716 L178.958179,57.752697 L173.621722,57.752697 L173.621722,26.1293716 L184.477265,26.1293716 Z M310.735997,26.1310471 L310.735997,31.1525108 L293.863745,31.1525108 L293.863745,39.521617 L309.018613,39.521617 L309.018613,44.2716503 L293.863745,44.2716503 L293.863745,52.7312333 L311.278858,52.7312333 L311.278858,57.752697 L288.525612,57.752697 L288.525612,26.1310471 L310.735997,26.1310471 Z M439.893339,26.1310471 L439.893339,57.752697 L434.55353,57.752697 L434.55353,26.1310471 L439.893339,26.1310471 Z M464.950392,26.1293716 C469.747339,26.1293716 473.245777,27.0525703 475.449055,28.8889147 C477.648982,30.7302856 478.751459,33.5652261 478.751459,37.3954117 C478.751459,41.2255972 477.628876,44.0303787 475.380359,45.8080808 C473.133518,47.5891338 469.690373,48.4754716 465.045896,48.4754716 L459.431306,48.4754716 L459.431306,57.752697 L454.094849,57.752697 L454.094849,26.1293716 L464.950392,26.1293716 Z M512.000016,26.1310471 L512.000016,31.0167956 L502.411148,31.0167956 L502.411148,57.752697 L497.069665,57.752697 L497.069665,31.0167956 L487.480797,31.0167956 L487.480797,26.1310471 L512.000016,26.1310471 Z M261.9204,26.1310471 C266.74583,26.1310471 270.20238,26.9453385 272.285022,28.5739213 C274.365989,30.2025042 275.403122,32.8112526 275.403122,36.4001666 C275.403122,41.6176634 273.132824,44.904988 268.573797,46.2621404 L276.852427,57.7510215 L270.064989,57.7510215 L262.51185,47.1199947 L255.498221,47.1199947 L255.498221,57.7510215 L250.161764,57.7510215 L250.161764,26.1310471 L261.9204,26.1310471 Z M407.944967,26.1310471 C412.772073,26.1310471 416.225272,26.9453385 418.307914,28.5739213 C420.392232,30.2025042 421.432715,32.8112526 421.432715,36.4001666 C421.432715,41.6176634 419.157391,44.904988 414.603391,46.2621404 L422.878669,57.7510215 L416.094583,57.7510215 L408.536417,47.1199947 L401.521112,47.1199947 L401.521112,57.7510215 L396.184655,57.7510215 L396.184655,26.1310471 L407.944967,26.1310471 Z M98.5360104,37.7154315 L87.7072749,47.8270544 L40.1550021,47.8270544 L50.9837375,37.7154315 L98.5360104,37.7154315 Z M184.388464,30.9698817 L178.958179,30.9698817 L178.958179,43.6366665 L185.157517,43.6366665 C188.111417,43.639988 190.123689,43.0736701 191.196007,41.9410343 C192.266649,40.810074 192.801133,39.1513322 192.801133,36.964809 C192.801133,34.7766103 192.124232,33.2318023 190.765404,32.327034 C189.409927,31.4222658 187.282047,30.9698817 184.388464,30.9698817 Z M464.861591,30.9698817 L459.431306,30.9698817 L459.431306,43.6366665 L465.630644,43.6366665 C468.58622,43.639988 470.601843,43.0736701 471.67081,41.9410343 C472.743128,40.810074 473.277611,39.1513322 473.277611,36.964809 C473.277611,34.7766103 472.599035,33.2318023 471.238531,32.327034 C469.88473,31.4222658 467.756849,30.9698817 464.861591,30.9698817 Z M262.287333,30.9698817 L255.499896,30.9698817 L255.499896,42.2794936 L262.149943,42.2794936 C265.164161,42.2811602 267.214969,41.8136966 268.302367,40.8787694 C269.384738,39.9421667 269.932625,38.4425971 269.932625,36.3750342 C269.932625,34.3124977 269.373009,32.8916764 268.257128,32.1226234 C267.141247,31.3535704 265.150757,30.9698817 262.287333,30.9698817 Z M408.315252,30.9698817 L401.527814,30.9698817 L401.527814,42.2794936 L408.181212,42.2794936 C411.193755,42.2811602 413.246238,41.8136966 414.33196,40.8787694 C415.414331,39.9421667 415.960543,38.4425971 415.960543,36.3750342 C415.960543,34.3124977 415.404278,32.8916764 414.288397,32.1226234 C413.174192,31.3535704 411.178675,30.9698817 408.315252,30.9698817 Z M87.7072749,12.3735434 L98.5326594,22.4885172 L50.9837375,22.4885172 L40.1583531,12.3735434 L87.7072749,12.3735434 Z" fill="#1D222D"></path>
    </g>
</svg>

<svg preserveAspectRatio="xMidYMid" viewBox="0 0 512 86" xmlns="http://www.w3.org/2000/svg">
  <path fill="#1D222D" d="m27.998 25.34 7.154 7.156L12.206 55.44l22.946 22.95-7.154 7.148L1.474 59.014A5.016 5.016 0 0 1 0 55.441a5.009 5.009 0 0 1 1.29-3.382l.184-.194L27.998 25.34Zm59.71 37.71 10.828 10.112H50.984L40.155 63.051h47.552ZM110.702 0l26.514 26.526a5.022 5.022 0 0 1 1.482 3.57 5.04 5.04 0 0 1-1.297 3.389l-.185.196-26.514 26.518-7.15-7.153L126.486 30.1 103.552 7.153 110.703 0Zm222.602 25.364c2.019 0 4.024.331 6.022.997 1.988.663 3.708 1.598 5.154 2.804l-2.847 4.025c-.94-.843-2.203-1.538-3.804-2.08-1.596-.546-3.17-.817-4.723-.817-1.556 0-2.828.315-3.822.95-.995.633-1.494 1.59-1.494 2.873 0 1.282.5 2.262 1.494 2.941.997.679 3.11 1.41 6.356 2.193 3.243.784 5.685 1.885 7.33 3.304 1.64 1.42 2.465 3.507 2.465 6.265 0 2.76-1.04 4.998-3.122 6.719-2.078 1.717-4.81 2.577-8.188 2.577-4.948 0-9.336-1.706-13.164-5.112l3.347-4.025c3.197 2.775 6.52 4.16 9.951 4.16 1.72 0 3.086-.368 4.097-1.107 1.008-.737 1.514-1.716 1.514-2.94 0-1.222-.477-2.172-1.427-2.85-.95-.678-2.586-1.296-4.91-1.852-2.323-.56-4.088-1.074-5.29-1.538a11.988 11.988 0 0 1-3.214-1.833c-1.87-1.42-2.805-3.59-2.805-6.516 0-2.924 1.064-5.18 3.187-6.762 2.13-1.582 4.758-2.376 7.893-2.376Zm39.114-.01c4.903 0 8.996 1.81 12.282 5.428l-3.393 3.71c-1.506-1.448-2.932-2.458-4.274-3.031s-2.919-.861-4.729-.861c-3.196 0-5.88 1.033-8.05 3.1-2.173 2.065-3.26 4.706-3.26 7.918 0 3.212 1.083 5.897 3.24 8.054 2.15 2.163 4.708 3.239 7.662 3.239 1.841 0 3.423-.309 4.751-.927 1.326-.618 2.713-1.607 4.157-2.966l3.442 3.529c-3.348 3.708-7.414 5.56-12.191 5.56-4.777 0-8.746-1.537-11.898-4.613-3.153-3.077-4.726-6.965-4.726-11.672 0-4.705 1.606-8.624 4.817-11.762 3.213-3.136 7.268-4.706 12.17-4.706Zm-157.498.777v17.507c.002 2.896.726 5.19 2.173 6.878 1.446 1.69 3.406 2.534 5.881 2.534 2.47 0 4.434-.845 5.881-2.534 1.446-1.69 2.168-3.982 2.168-6.876V26.131h5.342v17.734c0 4.554-1.254 8.06-3.757 10.515-2.503 2.458-5.713 3.688-9.634 3.688-3.92 0-7.134-1.23-9.637-3.688s-3.755-5.965-3.755-10.515V26.13h5.338Zm-30.444-.002c4.797 0 8.294.924 10.496 2.76 2.201 1.841 3.304 4.676 3.304 8.506s-1.125 6.635-3.371 8.413c-2.247 1.781-5.694 2.667-10.338 2.667h-5.61v9.278h-5.336V26.129h10.855Zm126.259.002v5.022h-16.872v8.369h15.155v4.75h-15.155v8.46h17.415v5.02h-22.753v-31.62h22.21Zm129.157 0v31.622h-5.34V26.13h5.34Zm25.057-.002c4.797 0 8.296.924 10.5 2.76 2.199 1.841 3.301 4.676 3.301 8.506s-1.122 6.635-3.37 8.413c-2.247 1.781-5.69 2.667-10.335 2.667h-5.615v9.278h-5.336V26.129h10.855Zm47.05.002v4.886h-9.589v26.736h-5.341V31.017h-9.59V26.13H512Zm-250.08 0c4.826 0 8.282.814 10.365 2.443 2.081 1.629 3.118 4.237 3.118 7.826 0 5.218-2.27 8.505-6.83 9.862l8.28 11.489h-6.788l-7.553-10.631h-7.014v10.631h-5.336v-31.62h11.758Zm146.025 0c4.827 0 8.28.814 10.363 2.443 2.084 1.629 3.125 4.237 3.125 7.826 0 5.218-2.276 8.505-6.83 9.862l8.276 11.489h-6.784l-7.559-10.631h-7.015v10.631h-5.336v-31.62h11.76ZM98.536 37.715 87.707 47.827H40.155l10.829-10.112h47.552Zm85.852-6.745h-5.43v12.667h6.2c2.953.003 4.966-.563 6.038-1.696 1.07-1.13 1.605-2.79 1.605-4.976 0-2.188-.677-3.733-2.036-4.638-1.355-.905-3.483-1.357-6.377-1.357Zm280.474 0h-5.43v12.667h6.199c2.955.003 4.97-.563 6.04-1.696 1.072-1.13 1.607-2.79 1.607-4.976 0-2.188-.679-3.733-2.04-4.638-1.353-.905-3.481-1.357-6.376-1.357Zm-202.575 0H255.5v11.31h6.65c3.014.001 5.065-.466 6.152-1.401 1.083-.937 1.63-2.436 1.63-4.504 0-2.063-.559-3.483-1.675-4.252-1.116-.77-3.106-1.153-5.97-1.153Zm146.028 0h-6.787v11.31h6.653c3.013.001 5.065-.466 6.151-1.401 1.082-.937 1.629-2.436 1.629-4.504 0-2.063-.557-3.483-1.673-4.252-1.114-.77-3.11-1.153-5.973-1.153ZM87.707 12.374l10.826 10.115h-47.55L40.159 12.374h47.55Z"/>
</svg>
